src/learn/logo.svg

<svg width="32" height="32" viewBox="0 0 32 32" fill="none" xmlns="http://www.w3.org/2000/svg">
<path opacity="0.3" d="M19.983 16C22.5436 17.7817 25.651 18.8297 29 18.8297C23.3921 18.8297 18.8297 23.392 18.8297 29C18.8297 25.651 17.7809 22.5435 16 19.983C17.0804 18.4308 18.4308 17.0804 19.983 16ZM12.0171 16C9.45647 17.7817 6.34895 18.8297 3 18.8297C8.60793 18.8297 13.1703 23.392 13.1703 29C13.1703 25.651 14.2191 22.5435 16 19.983C14.9196 18.4308 13.5692 17.0804 12.0171 16ZM16 12.0171C14.2183 9.45644 13.1703 6.34894 13.1703 3C13.1703 8.60794 8.60793 13.1703 3 13.1703C6.34895 13.1703 9.45647 14.2183 12.0171 16C13.5692 14.9196 14.9196 13.5693 16 12.0171ZM19.983 16C22.5436 14.2183 25.651 13.1703 29 13.1703C23.3921 13.1703 18.8297 8.60794 18.8297 3C18.8297 6.34894 17.7809 9.45644 16 12.0171C17.0804 13.5693 18.4308 14.9196 19.983 16Z" fill="#39D9A9"/>
<path d="M2.86631 13C1.28362 13 0 14.3426 0 16C0 17.6573 1.28362 19 2.86631 19C6.25858 19 9.40629 17.8889 12 16C9.40629 14.111 6.25938 13 2.86631 13Z" fill="#39D9A9"/>
<path d="M13 29.1337C13 30.7164 14.3426 32 16 32C17.6573 32 19 30.7164 19 29.1337C19 25.7414 17.8881 22.5937 16 20C14.1111 22.5937 13 25.7406 13 29.1337Z" fill="#39D9A9"/>
<path d="M29.1336 13C25.7414 13 22.5937 14.111 20 16C22.5937 17.8889 25.7414 19 29.1336 19C30.7164 19 32 17.6573 32 16C32 14.3426 30.7164 13 29.1336 13Z" fill="#39D9A9"/>
<path d="M19 2.86631C19 1.28363 17.6573 0 16 0C14.3426 0 13 1.28363 13 2.86631C13 6.25857 14.1119 9.40633 16 12C17.8889 9.40633 19 6.25938 19 2.86631Z" fill="#39D9A9"/>
</svg>

<svg fill="none" height="32" width="32" xmlns="http://www.w3.org/2000/svg"><g fill="#39d9a9"><path d="M19.983 16A15.736 15.736 0 0029 18.83c-5.608 0-10.17 4.562-10.17 10.17 0-3.349-1.05-6.457-2.83-9.017A15.976 15.976 0 0119.983 16zm-7.966 0A15.737 15.737 0 013 18.83c5.608 0 10.17 4.562 10.17 10.17 0-3.349 1.05-6.457 2.83-9.017A15.977 15.977 0 0012.017 16zM16 12.017A15.737 15.737 0 0113.17 3c0 5.608-4.562 10.17-10.17 10.17 3.349 0 6.456 1.048 9.017 2.83A15.977 15.977 0 0016 12.017zM19.983 16A15.736 15.736 0 0129 13.17c-5.608 0-10.17-4.562-10.17-10.17 0 3.349-1.05 6.456-2.83 9.017A15.976 15.976 0 0019.983 16z" opacity=".3"/><path d="M2.866 13C1.284 13 0 14.343 0 16s1.284 3 2.866 3c3.393 0 6.54-1.111 9.134-3-2.594-1.889-5.74-3-9.134-3zM13 29.134C13 30.716 14.343 32 16 32s3-1.284 3-2.866c0-3.393-1.112-6.54-3-9.134-1.889 2.594-3 5.74-3 9.134zM29.134 13c-3.393 0-6.54 1.111-9.134 3 2.594 1.889 5.741 3 9.134 3C30.716 19 32 17.657 32 16s-1.284-3-2.866-3zM19 2.866C19 1.284 17.657 0 16 0s-3 1.284-3 2.866c0 3.393 1.112 6.54 3 9.134 1.889-2.594 3-5.74 3-9.134z"/></g></svg>
